X:114
T:Little Fishie
Z:Jack Campin, http://www.campin.me.uk/
S:Northumbrian Minstrelsy
M:3/2
L:1/4
K:G
(DG) .G.G (FA) |(GB) .B.B (ce)|(dB) .B.G (FG)        | AB  cE  F2 |
(DG) .G.G (FA) |(GB) .B.B (ce)|(dB) .B.G (A/c/)(B/d/)| cE  EF  G2:| 
.d (gf) (gd) .B|(AB) .c.d  B2 |.d (gf) (gf)    .g    |(eb) a^c d2-|
 d=f  ed   cB  |(ce)  AG   F2 |(dB) .B.G (A/c/)(B/d/)| cE  EF  G2:|

